X:234
T:B234-  In peascod time
Q:1/4=120
L:1/4
M:6/4
K:G
G2AB2G|BA2G2G|c2BA2^G|A2AA2A|\
c2cc2c|B2BB2B|A3/2B/2AG2G|G2GG2G|]

